X:1
T:Vigila mortalis
T:Natal Monferato
T:Source : Motetti a voce sola di Natal Monferato---Libro terzo---Venetia---C.Bortoli---1666. Editor : André Vierendeels (31/01/17).
T:Notes : Original clefs : C3, F4 Editorial accidentals above the staff Figures in BC are notated in original print    
T:Vigila mortalis
T:©
T:©
T:©
T:©
T:©
T:©
T:©
T:©
T:©
T:©
T:©
T:©
T:©
T:©
C:Natal Monferato
Z:©
%%score 1 2
L:1/8
Q:1/4=120
M:3/2
K:F
V:1 treble nm="Alto" snm="A"
V:2 bass nm="MusicXML Part"
V:1
 F6 G2 A4 | D2 E2 F2 G2 G4 | F4 z4 z4 | D2 E2 F2 G2 G4 | F4 z4 z4 |[M:4/4] z2 A4 F2 | z GAB G3 F | %7
w: Vi- gi- la,|vi- gi- la mor- ta-|lis,|vi- gi- la mor- ta-|lis,|Sa- than|te ten- dit la- que-|
 !fermata!F8 || F/E/F/G/ FG AB/A/ G2 | F/E/F/G/ FG AB GA | F2 z C CC C/D/C/B,/ | %11
w: os.|A- * * * * mor mun- * * di|e- * * * * sca De- * mo- *|nis, haec mor- tem con- e- * *|
 A,F, z C DE F/E/ D/E/ | C2 z F FF F/G/F/E/ | DB, z F GA B/A/ G/A/ | F4 F/E/F/G/ FG | %15
w: * fert, haec o- mnes de- * ci- *|pit, haec mor- tem con- * * *|* fert, haec o- mnes de- * ci- *|pit, A- * * * * mor|
 A B/A/ G2 F/E/F/G/ FG | AB GA F2 z C | CC C/D/ C/B,/ A,F, z F | GA B/A/ G/A/ F2 z G | %19
w: mun- di _ _ e- * * * * sca|De- * mo- * nis, haec|mor- tem con- * * * * fert, haec|o- mnes de- * ci- * pit, haec|
 F>G E>F D2 CF | GA B/A/ G/A/ F2 z F | GA B/A/ G/A/ F2 z2 ||[M:3/2] F6 G2 A4 | D2 E2 F2 G2 G4 | %24
w: o- * * * * mnes, haec|o- mnes de- * ci- * pit, haec|o- mnes de- * ci- * pit.|Vi- gi- la,|vi- gi- la mor- ta-|
 F4 z4 z4 | D2 E2 F2 G2 G4 | F4 z4 z4 ||[M:4/4] z F/G/ A3 G z G/^F/ | ^F2 F2 z2 G2- | GFFE E2 E2 | %30
w: lis,|vi- i- la mor- ta-|lis.|Oh _ _ _ mun- de|fal- lax, mun-|* de, mun- de men- dax,|
 z2 FF FFFF | F G/A/ FG/A/ B/A/F AA | AG G2 z2 FF | FEEE EDFG | AG G2 z2 FE | %35
w: sem- per fe- lix qui te|ri- * * * * * * * de, num- quam|mi- * ser, num- quam|mi- ser qui te o- dit, sem- per|fe- * lix, sem- per|
 DF E/F/ G/A/ F E/D/ C/D/E/F/ | D2 GG GC C2 | z2 FG AG G2 | z2 z F/F/ GAGA | %39
w: fe- lix qui _ te _ ri- * * * * * *|det, num- quam _ mi- ser,|sem- per fe- * lix,|qui te ri- det, qui te|
 FF F/G/ F/E/ DD G/F/ G/F/ | EE A/B/ A/G/ FF B/A/ B/A/ | GG z F/F/ GAGA | GG z G/G/ GAGA | %43
w: o- dit, sem- * per _ fe- lix, num- * quam _|mi- ser, sem- * per _ fe- lix, num- * quam _|mi- ser, qui te ri- det, qui te|o- dit, qui te o- dit, qui te|
 FF z2 z4 |[M:3/2] F6 G2 A4 | D2 E2 F2 G2 G4 | F4 z4 z4 | D2 E2 F2 G2 G4 | !fermata!F4 z4 z4 | %49
w: ri- det.|Vi- gi- la,|vi- gi- la mor- ta-|lis,|vi- gi- la mor- ta-|lis.|
[M:4/4] F/G/F/G/ AG GC z2 | F/G/F/G/ AG GC F/E/F/E/ | DE/F/ G/F/G/F/ ECFG | AG G>F FE/D/ CF | %53
w: Mun- * * * * dum fu- ge,|Mun- * * * * dum sper- ne, cae- * * *|* * * * * * * * li, cae- li|que- re iu- bi- la _ _ _ _|
 DGEC FA cB/A/ | G2 FG AG G>F | FF/G/ AB/A/ G2 FG | AG G>F F2 z2 | F/G/F/G/ AG GC z2 | %58
w: _ _ _ _ _ _ _ _ _|* cae- li que- re iu- bi-|la, _ _ _ _ _ _ cae- li|que- re iu- bi- la,|mun- * * * * dum fu- ge,|
 F/G/F/G/ AG GDFG | AG G>F FE/D/ CF | DGEC FA cB/A/ | G2 FG AG G>F | F4 F4 | F2 F2 F4- | F4 F4 | %65
w: mun- * * * * di sper- ne, cae- li|que- re iu- bi- la _ _ _ _|_ _ _ _ _ _ _ _ _|* cae- li que- re iu- bi-|la Il|la ae- ter-|* na|
 DC D2 C2 z2 | z F/E/ DE/F/ G/A/ G/F/ E2 | z G/F/ EF/G/ A/B/ A/G/ F2 | z F/G/ AB/A/ G>F F2 | %69
w: haec ut um- bra,|Mo- men- ta ne a pe- * re- * unt|mo- men- ta ne a- pe- * re- * unt,|pe- * * * * * re- unt|
 z F/G/ AB/A/ G>F F2 |[M:3/2] F6 G2 A4 | D2 E2 F2 G2 G4 | F4 z4 z4 | D2 E2 F2 G2 G4 | F4 z4 z4 | %75
w: pe- * * * * * re- unt.|Vi- gi- la,|vi- gi- la mor- ta-|lis,|vi- gi- la mor- ta-|lis,|
[M:4/4] FG A B/A/ G2 z2 | D/E/D/E/ FE FE/D/ C2 | z2 F/G/F/E/ DD GF/G/ | %78
w: Tran- sit ho- nor _ _|spi- * * * rat vo- lup- * ptas, _|pul- chri- tu- do pe- rit, oc- ci- dit|
 EC FG/A/ G/A/ G/A/ B/A/ G/A/ | F2 z2 z FGA | G/A/ G/A/ B/A/ G/A/ F2 F/G/F/E/ | %81
w: vi- ta, o- mni- a tan- * dem- * va- * ni- *|tas o- mni- a|tan- * dem _ va- * ni- * tas, va- * * *|
 DE/F/ G/A/G/F/ EF/G/ A/B/A/G/ | FG/A/ B/c/B/A/ G>F F2 | z2 F/G/F/E/ DE/F/ G/A/G/F/ | %84
w: |* * * * * * * * ni- tas,|va- * * * * * * * * * *|
 EF/G/ A/B/A/G/ FG/A/ B/c/B/A/ | G>F F2 z2 FE/F/ | DD G/A/G/F/ EEFG | A B/A/ G2 D/E/D/E/ FE | %88
w: |* ni- tas oc- ci- dit|vi- ta, pul- chri- tu- do pe- rit, trans- it|ho- nor, _ _ spi- * * * rat vo-|
 F E/D/ C2 GA/B/ A/B/ A/B/ |"^piano" B/A/ G/A/ F2 F G/A/ G/A/ G/A/ | B/A/ G/A/ F2 FG/A/ G/A/ G/A/ | %91
w: lup- tas _ _ o- mni- a tan- * dem _|va- * ni- * tas, o- mni- a tan- * dem _|va- * ni- * tas, o- mni- a tan- * dem _|
 B/A/ G/A/ F2 z2 F/G/F/E/ | DE/F/ G/A/G/F/ EF/G/ A/B/A/G/ | FG/A/ B/c/B/A/ G>F F2 | %94
w: va- * ni- * tas, va- * * *||* * * * * * * * ni- tas,|
 z2 F/G/F/E/ DE/F/ G/A/G/F/ | EF/G/ A/B/A/G/ FG/A/ B/c/B/A/ | G>F F2 z4 |[M:3/2] F6 G2 A4 | %98
w: va- * * * * * * * * * *||* ni- tas,|Vi- gi- la,|
 D2 E2 F2 G2 G4 | F4 z4 z4 |"^piano" D2 E2 F2 G2 G4 | F4 z4 z4 |] %102
w: vi- gi- la mor- ta-|lis,|vi- gi la mor- ta-|lis.|
V:2
"^BC" F,,12 | B,,8 C,4 | F,,4 z4 z4 | B,,8 C,4 | F,,4 z4 z4 |[M:4/4] F,,4 F,,4 | B,,4 C,4 | F,,8 || %8
 F,3 E, F,2 C,2 | D,2 A,,2 B,,2 C,2 | F,2 E,2 F,2 E,2 | F,2 E,2 F,2 G,2 | C,2 A,,2 B,,2 A,,2 | %13
 B,,2 A,,2 B,,2 C,2 | F,,4 F,3 E, | F,2 C,2 D,2 A,,2 | B,,2 C,2 F,2 E,2 | F,2 E,2 A,2 A,,2 | %18
 B,,2 C,2 F,2 E,2 |"^4 3" D,2 C,2 B,,2 A,,2 | B,,2 C,2 F,,2 A,,2 | B,,2 C,2 F,,2 z2 || %22
[M:3/2] F,,12 | B,,8 C,4 | F,,4 z4 z4 | B,,8 C,4 | F,,4 z4 z4 ||[M:4/4] F,4 C,4 | D,4 B,,4 | %29
 B,,4 C,4 | F,3 E, D,C,B,,A,, | B,,2 C,2 F,2 A,,2 | B,,2 C,2 D,2 A,,2 | B,,2 C,2 D,2 A,,2 | %34
 B,,2 C,2 D,2 A,,2 | B,,2 C,2 F,,2 A,,2 | B,,2 G,,2 A,,3 B,, | C,2 A,,2 B,,2 C,2 | %38
 D,2 A,,2 B,,2 C,2 | F,,2 A,,2 B,,2 G,,2 | A,,2 F,,2 D,2 B,,2 | C,2 A,,2 B,,2 C,2 | %42
 F,,2 A,,2 B,,2 C,2 | F,,2 z2 z4 |[M:3/2] F,,12 | B,,8 C,4 | F,,4 z4 z4 | B,,8 C,4 | F,,4 z4 z4 | %49
[M:4/4] F,3 B,, C,2 z2 | D,3 B,, A,,2 F,,2 | B,,2 G,,2 C,2 D,C, | F,B,, C,2 F,,2 A,,2 | %53
 B,,2 C,2 A,,3 B,, | C,2 D,E, F,B,, C,2 | F,3 F,, A,,2 F,,2- | F,,B,, C,2 F,,2 z2 | %57
 F,3 B,, C,2 z2 | D,3 B,, C,2 D,E, | F,B,, C,2 F,,2 A,,2 | B,,2 C,2 D, A,,2 B,, | %61
 C,2 D,E, F,B,, C,2 | F,,4 F,G,A,B, | F,G,A,B, F,E,D,C, | B,,C,D,E, F,G,A,F, | B,A, B,2 F,2 z2 | %66
 A,2 B,2 G,2 C2 | B,2 C2 A,2 D2 | B,2 F,2 C,2 F,,2 | B,,2 F,,2 C,2 F,,2 |[M:3/2] F,,12 | B,,8 C,4 | %72
 F,,4 z4 z4 | B,,8 C,4 | F,,4 z4 z4 |[M:4/4] F,E,F,F,, C,2 z2 |"^4 3" B,2 A,G, F,4 | %77
 z2 A,2 B,2 G,2 | C2 A,2 B,2 C2 | F,2 z2 z2 A,2 | B,2 C2 F,2 A,2 | B,2 G,2 C2 A,2 | D2 B,2 C2 F,2 | %83
 z2 A,2 B,2 G,2 | C2 A,2 D2 B,2 | C,2 F,,2 z2 A,2 | B,2 G,2 C2 F,E, | F,F,, C,2 B,2 A,G, | %88
"^4 3" F,4 D,2 B,,2 | C,2 F,2 D,2 B,,2 | C,2 F,2 D,2 B,,2 | C,2 F,2 z2 A,2 | B,2 G,2 C2 A,2 | %93
 D2 B,2 C2 F,2 | z2 A,2 B,2 G,2 | C2 A,2 D2 B,2 | C2 F,2 z4 |[M:3/2] F,12 | B,,8 C,4 | F,,4 z4 z4 | %100
 B,,8 C,4 | F,,4 z4 z4 |] %102

